X:1
T: Reel des Onions $1(R-107)
I: Reel des Onions	R-107	G	reel
M: C|
R: reel
K: G
"G"gage d2"G#o"Bd| (3"Am"cdc A2 A4| "D"feee eddd| dccc c2B2|
"G"gage d2"G#o"Bd| (3"Am"cdc A2 A4| "D"D2fe dcBA|1 "G"G2g2 g4:|2 "G"G2g2 g2 |]
|:Bc| "G"d2g2 ggfg| "Am"a6 (3ABc| "D"d2a2 aaga| "G"b6 Bc|
    "G"d2g2 ggfg| "Am"a6 (3ABc| "D"d2a2 aaba|1 "G"g6 :|2 "G"g8 |]

